Numix-Light/16/status/indicator-keyboard-Ru-1.svg

<?xml version="1.0" encoding="UTF-8" standalone="no"?>
<svg
   xmlns:dc="http://purl.org/dc/elements/1.1/"
   xmlns:cc="http://creativecommons.org/ns#"
   xmlns:rdf="http://www.w3.org/1999/02/22-rdf-syntax-ns#"
   xmlns:svg="http://www.w3.org/2000/svg"
   xmlns="http://www.w3.org/2000/svg"
   xmlns:sodipodi="http://sodipodi.sourceforge.net/DTD/sodipodi-0.dtd"
   xmlns:inkscape="http://www.inkscape.org/namespaces/inkscape"
   viewBox="0 0 16 16"
   id="svg2"
   version="1.1"
   inkscape:version="0.91 r13725"
   sodipodi:docname="indicator-keyboard-Ru-1.svg">
  <metadata
     id="metadata14">
    <rdf:RDF>
      <cc:Work
         rdf:about="">
        <dc:format>image/svg+xml</dc:format>
        <dc:type
           rdf:resource="http://purl.org/dc/dcmitype/StillImage" />
      </cc:Work>
    </rdf:RDF>
  </metadata>
  <defs
     id="defs12" />
  <sodipodi:namedview
     pagecolor="#ffffff"
     bordercolor="#666666"
     borderopacity="1"
     objecttolerance="10"
     gridtolerance="10"
     guidetolerance="10"
     inkscape:pageopacity="0"
     inkscape:pageshadow="2"
     inkscape:window-width="640"
     inkscape:window-height="480"
     id="namedview10"
     showgrid="false"
     inkscape:zoom="14.75"
     inkscape:cx="8"
     inkscape:cy="8"
     inkscape:window-x="65"
     inkscape:window-y="24"
     inkscape:window-maximized="0"
     inkscape:current-layer="svg2" />
  <path
     style="fill:#353535;fill-opacity:1"
     d="M 1.5996094 0 C 0.71320937 2.9605947e-16 0 0.71320937 0 1.5996094 L 0 14.400391 C 2.9605947e-16 15.286791 0.71320937 16 1.5996094 16 L 14.400391 16 C 15.286791 16 16 15.286791 16 14.400391 L 16 1.5996094 C 16 0.71320937 15.286791 0 14.400391 0 L 1.5996094 0 z M 3.6035156 4.8046875 C 4.4615156 4.8046875 5.1070625 4.9670156 5.5390625 5.2910156 C 5.9770625 5.6150156 6.1953125 6.0944688 6.1953125 6.7304688 C 6.1953125 7.1984687 6.0721719 7.5678906 5.8261719 7.8378906 C 5.5801719 8.1078906 5.2574687 8.3038281 4.8554688 8.4238281 C 4.9514687 8.5438281 5.0726563 8.7042031 5.2226562 8.9082031 C 5.3786562 9.1122031 5.5391719 9.3379844 5.7011719 9.5839844 C 5.8631719 9.8239844 6.0217344 10.075844 6.1777344 10.339844 C 6.3337344 10.603844 6.4662187 10.855703 6.5742188 11.095703 L 5.9160156 11.095703 C 5.7900156 10.855703 5.6519531 10.616953 5.5019531 10.376953 C 5.3579531 10.136953 5.2087344 9.9055939 5.0527344 9.6835938 C 4.9027344 9.4555937 4.7553281 9.2447344 4.6113281 9.0527344 L 4.234375 8.5488281 C 4.042375 8.5668281 3.8502031 8.5761719 3.6582031 8.5761719 L 2.6503906 8.5761719 L 2.6503906 11.095703 L 2.0371094 11.095703 L 2.0371094 4.9765625 C 2.2531094 4.9165625 2.5049687 4.8736094 2.7929688 4.8496094 C 3.0869687 4.8196094 3.3575156 4.8046875 3.6035156 4.8046875 z M 3.6757812 5.3359375 C 3.4477813 5.3359375 3.2462656 5.3452813 3.0722656 5.3632812 C 2.9042656 5.3752812 2.7643906 5.3864375 2.6503906 5.3984375 L 2.6503906 8.0546875 L 3.4960938 8.0546875 C 3.7780937 8.0546875 4.044875 8.0415781 4.296875 8.0175781 C 4.548875 7.9875781 4.767125 7.9278906 4.953125 7.8378906 C 5.139125 7.7418906 5.2865313 7.6075938 5.3945312 7.4335938 C 5.5025312 7.2595938 5.5566406 7.0226562 5.5566406 6.7226562 C 5.5566406 6.4466563 5.5025312 6.2171094 5.3945312 6.0371094 C 5.2865312 5.8571094 5.1447031 5.7172344 4.9707031 5.6152344 C 4.7967031 5.5072344 4.5971406 5.4344375 4.3691406 5.3984375 C 4.1471406 5.3564375 3.9157813 5.3359375 3.6757812 5.3359375 z M 7.5019531 6.4433594 L 8.0878906 6.4433594 L 8.0878906 8.8632812 C 8.0878906 9.1932813 8.1121562 9.4731719 8.1601562 9.7011719 C 8.2081563 9.9291721 8.2845781 10.115766 8.3925781 10.259766 C 8.5005781 10.397766 8.6386406 10.498453 8.8066406 10.564453 C 8.9806406 10.624453 9.1915 10.654297 9.4375 10.654297 C 9.7135 10.654297 9.9522503 10.639375 10.15625 10.609375 C 10.36025 10.579375 10.490922 10.553297 10.544922 10.529297 L 10.544922 6.4433594 L 11.128906 6.4433594 L 11.128906 10.933594 C 10.954906 10.981594 10.721734 11.035703 10.427734 11.095703 C 10.133735 11.155703 9.7736562 11.185547 9.3476562 11.185547 C 8.9996562 11.185547 8.7086094 11.135203 8.4746094 11.033203 C 8.2406094 10.931203 8.05025 10.787563 7.90625 10.601562 C 7.76225 10.415563 7.6577969 10.189781 7.5917969 9.9257812 C 7.5317969 9.6617812 7.5019531 9.3707344 7.5019531 9.0527344 L 7.5019531 6.4433594 z M 13.693359 8.8417969 L 13.962891 8.8417969 L 13.962891 12.896484 L 13.582031 12.896484 L 13.582031 9.421875 C 13.539131 9.468675 13.482309 9.5157063 13.412109 9.5664062 C 13.345809 9.6171062 13.269394 9.66805 13.183594 9.71875 C 13.097794 9.76555 13.009616 9.812575 12.916016 9.859375 C 12.822416 9.902275 12.728366 9.9375437 12.634766 9.9648438 L 12.523438 9.671875 C 12.757437 9.5899751 12.965137 9.4880812 13.148438 9.3632812 C 13.331737 9.2345813 13.513959 9.0601969 13.693359 8.8417969 z "
     id="path4" />
</svg>

<svg xmlns="http://www.w3.org/2000/svg" viewBox="0 0 16 16">
 <path d="m 1.6 0 c -0.886 0 -1.6 0.713 -1.6 1.6 l 0 12.801 c 0 0.886 0.713 1.6 1.6 1.6 l 12.801 0 c 0.886 0 1.6 -0.713 1.6 -1.6 l 0 -12.801 c 0 -0.886 -0.713 -1.6 -1.6 -1.6 l -12.801 0 z m 2 4.805 c 0.858 0 1.504 0.162 1.936 0.486 c 0.438 0.324 0.656 0.803 0.656 1.439 c 0 0.468 -0.123 0.837 -0.369 1.107 c -0.246 0.27 -0.569 0.466 -0.971 0.586 c 0.096 0.12 0.217 0.28 0.367 0.484 c 0.156 0.204 0.317 0.43 0.479 0.676 c 0.162 0.24 0.321 0.492 0.477 0.756 c 0.156 0.264 0.288 0.516 0.396 0.756 l -0.658 0 c -0.126 -0.24 -0.264 -0.479 -0.414 -0.719 c -0.144 -0.24 -0.293 -0.471 -0.449 -0.693 c -0.15 -0.228 -0.297 -0.439 -0.441 -0.631 l -0.377 -0.504 c -0.192 0.018 -0.384 0.027 -0.576 0.027 l -1.01 0 l 0 2.52 l -0.613 0 l 0 -6.119 c 0.216 -0.06 0.468 -0.103 0.756 -0.127 c 0.294 -0.03 0.565 -0.045 0.811 -0.045 z m 0.072 0.531 c -0.228 0 -0.43 0.009 -0.604 0.027 c -0.168 0.012 -0.308 0.023 -0.422 0.035 l 0 2.656 l 0.846 0 c 0.282 0 0.549 -0.013 0.801 -0.037 c 0.252 -0.03 0.47 -0.09 0.656 -0.18 c 0.186 -0.096 0.333 -0.23 0.441 -0.404 c 0.108 -0.174 0.162 -0.411 0.162 -0.711 c 0 -0.276 -0.054 -0.506 -0.162 -0.686 c -0.108 -0.18 -0.25 -0.32 -0.424 -0.422 c -0.174 -0.108 -0.374 -0.181 -0.602 -0.217 c -0.222 -0.042 -0.453 -0.063 -0.693 -0.063 z m 3.826 1.107 l 0.586 0 l 0 2.42 c 0 0.33 0.024 0.61 0.072 0.838 c 0.048 0.228 0.124 0.415 0.232 0.559 c 0.108 0.138 0.246 0.239 0.414 0.305 c 0.174 0.06 0.385 0.09 0.631 0.09 c 0.276 0 0.515 -0.015 0.719 -0.045 c 0.204 -0.03 0.335 -0.056 0.389 -0.08 l 0 -4.086 l 0.584 0 l 0 4.49 c -0.174 0.048 -0.407 0.102 -0.701 0.162 c -0.294 0.06 -0.654 0.09 -1.08 0.09 c -0.348 0 -0.639 -0.05 -0.873 -0.152 c -0.234 -0.102 -0.424 -0.246 -0.568 -0.432 c -0.144 -0.186 -0.248 -0.412 -0.314 -0.676 c -0.06 -0.264 -0.09 -0.555 -0.09 -0.873 l 0 -2.609 z m 6.191 2.398 l 0.27 0 l 0 4.055 l -0.381 0 l 0 -3.475 c -0.043 0.047 -0.1 0.094 -0.17 0.145 c -0.066 0.051 -0.143 0.102 -0.229 0.152 c -0.086 0.047 -0.174 0.094 -0.268 0.141 c -0.094 0.043 -0.188 0.078 -0.281 0.105 l -0.111 -0.293 c 0.234 -0.082 0.442 -0.184 0.625 -0.309 c 0.183 -0.129 0.366 -0.303 0.545 -0.521 z" style="fill:#353535;fill-opacity:1"/>
</svg>
